X:1
T:Fire of Eternal Glory
T:Fire of Eternal Glory
T:Dmitri Shostacovich arr. Arman P. 
T:For Trombone Trio 
C:Dmitri Shostacovick
%%score 1 2 3
L:1/8
Q:1/4=140
M:4/4
K:Bb
V:1 bass nm="Trombone" snm="Tbn."
V:2 bass nm="Trombone" snm="Tbn."
V:3 bass nm="Trombone" snm="Tbn."
V:1
"^\n"!f! (B,4 | F6 G2 | F2 E2 D2 E2 | F6 E2 | D4 B,4) | (G8 | _A4 G4 | G4 F2 E2 | F8) | (C8 | %10
 E4 G4 | F4 B4 | A4 G4 | A8 | G6 F2 | F8- | F2) z2!p! (B,4 | F6 G2 | F2 E2 D2 E2 | F6 E2 | %20
 D4 B,4) | (G8 | _A4 G4 | G4 F2 E2 | F8) | (_G8 | =E4 _G4 |!<(! G4 A4 | B4 c4 | d4 c2 B2 | %30
 c6 B2!<)! |!ff! B8- | B8) |[K:Db] (B8 | A4 G4 | F2 G2 A2 B2 | A4 D4) | (B8 | A4 G4 | F2 E2 F2 G2 | %40
!>(! A4 =A4!>)! |[K:Bb]!mp! B6)!<(! (A2 | G2 F2 G2 A2 | B4) (G2 A2 | B4 c4 | d8) | (c2 B2 c2 d2 | %47
 c4 A2 B2 | c2 A2 B2 c2!<)! |!ff! d8) | (c4 B4 | A2 B2 c2 d2 | c4 F4 | d8) | (c4 B4 | A2 G2 A2 B2 | %56
 c4 d4 | e6) (d2 | c2 B2 c2 d2 | e4) (c2 d2 | e4) (B2 c2 | d4 c2 B2 | c8- | c4) B4 | B8- | B8 |] %66
V:2
!mf! (B,4 | D6 E2 | D2 C2 B,2 B,2 | F,4"_Optional Div." [E,G,]2 [F,A,]2 | B,4 C2 D2) | (E4 B,4 | %6
 D4 E4 | E4 D2 C2 | D8) | (A,8 | C4 E4 | D4 F4 | F4 F4 | F8 | C6 A,2 | A,8- | A,2) z2!pp! (B,4 | %17
 D6 E2 | D2 C2 B,2 G,2 | F,4"_Optional Div." [E,G,]2 [F,A,]2 | B,4 C2 D2) | (E4 B,4 | D4 E4 | %23
 E4 D2 C2 | D8) | (D8 | _D4 =D4 |!<(! D4 _G4 | G4 A4 | B4 A2 G2 | A6 F2!<)! |!f! F8- | F8) | %33
[K:Db] (D8 | D4 D4 | D2 A,2 D2 E2 | F4 F4) | (D8 | D4 D4 | D2 A,2 D2 E2 |!>(! F4 F4)!>)! | %41
[K:Bb]!p!!<(! (B,8- | B,4 F,4 | B,4 F,4 | B,4 A,4 | G,2 D,2 G,2 F,2 | =E,8 | F,8- | F,8)!<)! | %49
!fff! z4 F4- | F8- | F2 z (3F,/A,/C/ !>!F2 z (3F,/A,/C/ | !>!F8 | z4 (F4- | F2 G2 FEDC | %55
 (3A,G,A, (3B,A,B, (3CB,C DE | F4) (3(D2 E2 F2 | G8- | G6) z (3G,/B,/D/ | !>!G6 z (3G,/B,/D/ | %60
 !>!G8 | (F4 A2 G2 | A8- | A4) F4 | F8- | F8 |] %66
V:3
!mf! (B,,4 | F,6 G,2 | F,2 E,2 D,2 G,2 | F,6 E,2 | B,,4 B,,2 B,,2) | (G,8 | F,4 E,4 | E,4 D,2 C,2 | %8
 B,,8) | (E,8 | G,4 B,4 | F,4 D4 | C4 B,4 | C8 | B,6 F,2 | F,8- | F,2) z2!pp! B,,4 | F,6 G,2 | %18
 F,2 E,2 D,2 B,,2 | F,6 E,2 | B,,4 B,4 | (B,8 | F,4 E,4 | E,4 D,2 C,2 | B,,8) | (A,8 | A,4 A,4 | %27
!<(! A,4 D4 | B,4 F4 | B,4 F2 G2 | F6 D2)!<)! |!f! !>!!tenuto!B,4 !>!!tenuto!F,4 | %32
 !>!!tenuto!B,4 !>!!tenuto!_A,4 |[K:Db] (G,8 | F,4 E,4 | D,2 E,2 F,2 G,2 | F,4 F,4) | (G,8 | %38
 F,4 E,4 | A,2 E,2 A,2 A,2 |!>(! D4 C4!>)! |[K:Bb]!p!!<(! D6) D2 | B,2 C2 B,2 C2 | D4 B,2 C2 | %44
 D4 F4 | (G8 | G2 G2 G2 _A2 | A4 F2 G2 | A2 F2 G2 A2!<)! |!ff! B8) | (A4 G4 | F2 C2 F,2 G,2 | %52
 A,4 C4 | B8) | (A4 G4 | A,2 C2 F2 G2 | A4 B4 | c6) (D2 | E2 D2 E2 G2 | c4) (E2 G2 | c4) (C2 D2 | %61
 F8- | F8- | F4) D4 | D8- | D8 |] %66

